assets/img/icons/duotone-icons/Shopping/Bag#1.svg

<?xml version="1.0" encoding="UTF-8"?>
<svg width="24px" height="24px" viewBox="0 0 24 24" version="1.1" xmlns="http://www.w3.org/2000/svg" xmlns:xlink="http://www.w3.org/1999/xlink">
    <!-- Generator: Sketch 52.2 (67145) - http://www.bohemiancoding.com/sketch -->
    <title>Stockholm-icons / Shopping / Bag#1</title>
    <desc>Created with Sketch.</desc>
    <g id="Stockholm-icons-/-Shopping-/-Bag#1" stroke="none" stroke-width="1" fill="none" fill-rule="evenodd">
        <rect id="bound" x="0" y="0" width="24" height="24"></rect>
        <path d="M14,9 L14,8 C14,6.8954305 13.1045695,6 12,6 C10.8954305,6 10,6.8954305 10,8 L10,9 L8,9 L8,8 C8,5.790861 9.790861,4 12,4 C14.209139,4 16,5.790861 16,8 L16,9 L14,9 Z M14,9 L14,8 C14,6.8954305 13.1045695,6 12,6 C10.8954305,6 10,6.8954305 10,8 L10,9 L8,9 L8,8 C8,5.790861 9.790861,4 12,4 C14.209139,4 16,5.790861 16,8 L16,9 L14,9 Z" id="Rectangle-58" fill="#335EEA" opacity="0.3"></path>
        <path d="M6.84712709,9 L17.1528729,9 C17.6417121,9 18.0589022,9.35341304 18.1392668,9.83560101 L19.611867,18.671202 C19.7934571,19.7607427 19.0574178,20.7911977 17.9678771,20.9727878 C17.8592143,20.9908983 17.7492409,21 17.6390792,21 L6.36092084,21 C5.25635134,21 4.36092084,20.1045695 4.36092084,19 C4.36092084,18.8898383 4.37002252,18.7798649 4.388133,18.671202 L5.86073316,9.83560101 C5.94109783,9.35341304 6.35828794,9 6.84712709,9 Z" id="Combined-Shape" fill="#335EEA"></path>
    </g>
</svg>

<svg width="24" height="24" viewBox="0 0 24 24" xmlns="http://www.w3.org/2000/svg"><g fill="none" fill-rule="evenodd"><path d="M0 0h24v24H0z"/><path d="M14 9V8a2 2 0 10-4 0v1H8V8a4 4 0 118 0v1h-2zm0 0V8a2 2 0 10-4 0v1H8V8a4 4 0 118 0v1h-2z" fill="#335EEA" opacity=".3"/><path d="M6.847 9h10.306a1 1 0 01.986.836l1.473 8.835A2 2 0 0117.639 21H6.361a2 2 0 01-1.973-2.329l1.473-8.835A1 1 0 016.847 9z" fill="#335EEA"/></g></svg>
